images_sukapura_svg/cmd/lc_reload.svg

<svg viewBox="0 0 24 24" xmlns="http://www.w3.org/2000/svg" xmlns:xlink="http://www.w3.org/1999/xlink"><linearGradient id="a" gradientUnits="userSpaceOnUse" x1="-19.118644" x2="-19.118644" y1="28.61017" y2="8.61017"><stop offset="0" stop-color="#2a9240"/><stop offset="1" stop-color="#32d74b"/></linearGradient><path d="m12 2a10 10 0 0 0 -5.5078125 1.6621094l1.453125 1.453125a8 8 0 0 1 .9101563-.4550782c-.3123361.1352094-.6171873.2856753-.9082032.4570313l2.0527344 2.0527344v-2.9042969a8 8 0 0 1 2-.265625 8 8 0 0 1 8 8 8 8 0 0 1 -1.113281 4.056641l1.451172 1.451171a10 10 0 0 0 1.662109-5.507812 10 10 0 0 0 -10-10zm-2.1015625 2.296875c-.2858585.078094-.5642474.1725761-.8359375.28125a8 8 0 0 1 .8359375-.28125zm-6.2363281 2.1953125a10 10 0 0 0 -1.6621094 5.5078125 10 10 0 0 0 10 10 10 10 0 0 0 5.507812-1.662109l-1.453124-1.453125a8 8 0 0 1 -.910157.455078c.312336-.13521.617188-.285675.908203-.457032l-2.052734-2.052734v2.904297a8 8 0 0 1 -2 .265625 8 8 0 0 1 -8-8 8 8 0 0 1 1.1132812-4.0566406zm11.2753906 12.9296875a8 8 0 0 1 -.835938.28125c.285859-.078094.564248-.172576.835938-.28125z" fill="url(#a)"/></svg>

<?xml version="1.0" encoding="UTF-8" standalone="no"?>
<svg
   xmlns:dc="http://purl.org/dc/elements/1.1/"
   xmlns:cc="http://creativecommons.org/ns#"
   xmlns:rdf="http://www.w3.org/1999/02/22-rdf-syntax-ns#"
   xmlns:svg="http://www.w3.org/2000/svg"
   xmlns="http://www.w3.org/2000/svg"
   xmlns:xlink="http://www.w3.org/1999/xlink"
   xmlns:sodipodi="http://sodipodi.sourceforge.net/DTD/sodipodi-0.dtd"
   xmlns:inkscape="http://www.inkscape.org/namespaces/inkscape"
   viewBox="0 0 24 24"
   version="1.1"
   id="svg4"
   sodipodi:docname="lc_reload.svg"
   inkscape:version="0.92.3 (unknown)"
   inkscape:export-filename="/home/rizmut/Dokumen/Rizmut/Github/libreoffice-style-sukapura/images_sukapura/cmd/lc_reload.png"
   inkscape:export-xdpi="96"
   inkscape:export-ydpi="96">
  <metadata
     id="metadata10">
    <rdf:RDF>
      <cc:Work
         rdf:about="">
        <dc:format>image/svg+xml</dc:format>
        <dc:type
           rdf:resource="http://purl.org/dc/dcmitype/StillImage" />
        <dc:title></dc:title>
      </cc:Work>
    </rdf:RDF>
  </metadata>
  <defs
     id="defs8">
    <linearGradient
       gradientTransform="translate(-31.118644,6.6101695)"
       id="a-36"
       gradientUnits="userSpaceOnUse"
       x1="14"
       x2="13.79661"
       y1="22"
       y2="2.1355929">
      <stop
         offset="0"
         stop-color="#0040dd"
         id="stop1586"
         style="stop-color:#2a9240;stop-opacity:1" />
      <stop
         offset="1"
         stop-color="#0a84ff"
         id="stop1588"
         style="stop-color:#32d74b;stop-opacity:1" />
    </linearGradient>
    <linearGradient
       inkscape:collect="always"
       xlink:href="#a-36"
       id="linearGradient874"
       x1="12"
       y1="22"
       x2="12"
       y2="2"
       gradientUnits="userSpaceOnUse" />
  </defs>
  <sodipodi:namedview
     pagecolor="#ffffff"
     bordercolor="#666666"
     borderopacity="1"
     objecttolerance="10"
     gridtolerance="10"
     guidetolerance="10"
     inkscape:pageopacity="0"
     inkscape:pageshadow="2"
     inkscape:window-width="1366"
     inkscape:window-height="706"
     id="namedview6"
     showgrid="true"
     inkscape:zoom="11.313709"
     inkscape:cx="18.8175"
     inkscape:cy="1.7983756"
     inkscape:window-x="0"
     inkscape:window-y="0"
     inkscape:window-maximized="1"
     inkscape:current-layer="svg4">
    <inkscape:grid
       type="xygrid"
       id="grid817"
       spacingx="0.5"
       spacingy="0.5"
       empspacing="2" />
  </sodipodi:namedview>
  <path
     style="fill:url(#linearGradient874);fill-opacity:1;stroke:none;stroke-opacity:1"
     d="M 12 2 A 10 10 0 0 0 6.4921875 3.6621094 L 7.9453125 5.1152344 A 8 8 0 0 1 8.8554688 4.6601562 C 8.5431327 4.7953656 8.2382815 4.9458315 7.9472656 5.1171875 L 10 7.1699219 L 10 4.265625 A 8 8 0 0 1 12 4 A 8 8 0 0 1 20 12 A 8 8 0 0 1 18.886719 16.056641 L 20.337891 17.507812 A 10 10 0 0 0 22 12 A 10 10 0 0 0 12 2 z M 9.8984375 4.296875 C 9.612579 4.374969 9.3341901 4.4694511 9.0625 4.578125 A 8 8 0 0 1 9.8984375 4.296875 z M 3.6621094 6.4921875 A 10 10 0 0 0 2 12 A 10 10 0 0 0 12 22 A 10 10 0 0 0 17.507812 20.337891 L 16.054688 18.884766 A 8 8 0 0 1 15.144531 19.339844 C 15.456867 19.204634 15.761719 19.054169 16.052734 18.882812 L 14 16.830078 L 14 19.734375 A 8 8 0 0 1 12 20 A 8 8 0 0 1 4 12 A 8 8 0 0 1 5.1132812 7.9433594 L 3.6621094 6.4921875 z M 14.9375 19.421875 A 8 8 0 0 1 14.101562 19.703125 C 14.387421 19.625031 14.66581 19.530549 14.9375 19.421875 z "
     id="path850" />
</svg>
